X: 29956
T: Oak Stick, The
R: jig
M: 6/8
K: Gmajor
|:GAG G2D|EFE E2D|GAG G2c|B2d dBA|
GAG G2D|EFE E2D|BdB BAG|E3 D3:|
|:G2c BAB|BAB BAG|F2A AFA|AFA AFD|
G2c BAB|BAB BAG|BdB BAG|E3 D3:|

